X:13
T:Ace and Deuce of Pipering, The
R:set dance
H:See also #10
D:Matt Molloy, Se\'an Keane, Liam O'Flynn: The Fire Aflame
Z:id:hn-setdance-13
M:C|
L:1/8
K:Ador
cB|BAAG ~A3c|BAAG ~A3B|BAdB BAdB|BAdB c3d|
e2fd e2fd|egfd edBd|~g3e ~f3d|egfd edBd|
cAdB cABA|GABc dBcB|A2af gedB|1 GABc d2:|2 A2AG A2||
|:cB|BAAG ~A3c|BAAG ~A3c|B2g2 f2g2|B2ga gfed|
e2a2 abag|e2ab aged|B2g2 f2gf|eagb ~a3b|
(3c'ba bg a2ed|cAdB cABA|GABc dBcB|A2af gedB|1 GABc d2:|2 A2AG A2||
|:cB|BAAG ~A3c|BAAG ~A3c|B2g2 gedB|(3cBA dB c3d|
e2fd edBd|(3cBA dB c2BA|~g3e fedf|egfd edBd|
(3cBA dB cABA|GABc dBcB|A2af gedB|1 GABc d2:|2 A2AG A2||
<end>
<start>
